assets/Double exclamation mark/Flat/double_exclamation_mark_flat.svg

<svg width="32" height="32" viewBox="0 0 32 32" fill="none" xmlns="http://www.w3.org/2000/svg">
<path d="M10 20.513C10 21.8858 11.12 23 12.5 23C13.88 23 15 21.8759 15 20.513V4.48697C15 3.11416 13.87 2 12.5 2C11.12 2 10 3.12411 10 4.48697V20.513Z" fill="#F8312F"/>
<path d="M10 27.43C10 28.84 11.15 29.99 12.56 29.99C13.97 29.99 15.12 28.84 15.12 27.43C15.12 26.02 13.97 24.87 12.56 24.87C11.15 24.87 10 26.02 10 27.43Z" fill="#F8312F"/>
<path d="M19.56 29.99C18.15 29.99 17 28.84 17 27.43C17 26.02 18.15 24.87 19.56 24.87C20.97 24.87 22.12 26.02 22.12 27.43C22.12 28.84 20.97 29.99 19.56 29.99Z" fill="#F8312F"/>
<path d="M17 20.513C17 21.8858 18.12 23 19.5 23C20.88 23 22 21.8759 22 20.513V4.48697C22 3.11416 20.87 2 19.5 2C18.12 2 17 3.12411 17 4.48697V20.513Z" fill="#F8312F"/>
</svg>

<svg xmlns="http://www.w3.org/2000/svg" width="32" height="32" fill="none"><path fill="#F8312F" d="M10 20.513a2.5 2.5 0 0 0 5 0V4.487a2.5 2.5 0 0 0-5 0v16.026ZM10 27.43c0 1.41 1.15 2.56 2.56 2.56 1.41 0 2.56-1.15 2.56-2.56 0-1.41-1.15-2.56-2.56-2.56-1.41 0-2.56 1.15-2.56 2.56ZM19.56 29.99c-1.41 0-2.56-1.15-2.56-2.56 0-1.41 1.15-2.56 2.56-2.56 1.41 0 2.56 1.15 2.56 2.56 0 1.41-1.15 2.56-2.56 2.56ZM17 20.513a2.5 2.5 0 0 0 5 0V4.487a2.5 2.5 0 0 0-5 0v16.026Z"/></svg>
